!!!COM: Bach, Johann Sebastian
!!!OPR: Joh. Seb. Bachs vierstimmige Choralgesänge
!!!XEN: Four-part Chorales
!!!OTL: 18. Befiehl du deine Wege
!!!SCT: BWV 270
!!!SCA: Thematisch-systematisches Verzeichnis der musikalischen Werke Johann Sebastian Bach: Bach-Werke-Verzeichnis (Schmieder)
!!!YOR: Bach Gesellschaft Edition xxxix
!!!ENC: Steven Rasmussen
!!!CDT: 1685/3//-1750/7/28/
!!!OCY: Deutschland
!!!YEC: Copyright (c) 1994, 2000 Center for Computer Assisted Research in the Humanities
!!!YEM: Rights to all derivative editions reserved
!!!YEN: United States of America
**kern	**silbe	**kern	**kern	**kern	**silbe
*I:[BASSO]	*I:[BASSO]	*I:[TENORE]	*I:[ALTO]	*I:[SOPRANO]	*I:[SOPRANO]
*>[A,A,B]	*	*>[A,A,B]	*>[A,A,B]	*>[A,A,B]	*
*>A	*	*>A	*>A	*>A	*
*clefF4	*	*clefGv2	*clefG2	*clefG2	*
*k[f#c#]	*	*k[f#c#]	*k[f#c#]	*k[f#c#]	*
*b:	*	*b:	*b:	*b:	*
*M4/4	*	*M4/4	*M4/4	*M4/4	*
8BL	.	4B	4d	4f#	Be-der
8AJ	.	.	.	.	.
=1	=1	=1	=1	=1	=1
4G	.	8BL	8dL	4b	-fiehlal-
.	.	8c#J	8eJ	.	.
4F#	.	4d	4f#	4a	du-ler-
4E	.	8dL	8BL	4g	dei--treu-
.	.	8c#J	8c#J	.	.
4D	.	8c#L	4d	4f#	-ne-sten
.	.	8BJ	.	.	.
=2	=2	=2	=2	=2	=2
2G	.	8BL	4d	2e	We-Pfle-
.	.	8A#J	.	.	.
.	.	4B	8c#L	.	.
.	.	.	8BJ	.	.
4F#;	.	4A#;	4c#;	4f#;	-ge,-ge
4F#	.	4A#	4f#	4cc#	unddes,
=3	=3	=3	=3	=3	=3
8BBL	.	4B	4f#	4dd	wasder
8C#J	.	.	.	.	.
8DL	.	4B	4f#	4dd	deinden
8EJ	.	.	.	.	.
4F#	.	4B	4.f#	8cc#L	Her-Him-
.	.	.	.	8bJ	.
4F#	.	4A#	.	4cc#	-ze-mel
.	.	.	8e	.	.
=4	=4	=4	=4	=4	=4
2.BB;	.	2.F#;	2.d;	2.b;	krÃ¤nkt,lenkt.
=:|!	=:|!	=:|!	=:|!	=:|!	=:|!
*>B	*	*>B	*>B	*>B	*
4B	.	8BL	4f#	4dd	Der
.	.	8AJ	.	.	.
=5	=5	=5	=5	=5	=5
4E	.	4G	4e	8cc#L	Wol-
.	.	.	.	8bJ	.
4F#	.	4A	8eL	4a	-ken,
.	.	.	8dJ	.	.
4G	.	8GL	4d	4b	Luft
.	.	8BJ	.	.	.
8F#L	.	4e	4g	4cc#	und
8EJ	.	.	.	.	.
=6	=6	=6	=6	=6	=6
4F#	.	8dL	4a	2dd	Win-
.	.	8cnJ	.	.	.
4G	.	4B	4g	.	.
4D;	.	4A;	4f#;	4dd;	-den
4D	.	8dL	4f#	4a	gibt
.	.	8cJ	.	.	.
=7	=7	=7	=7	=7	=7
4G	.	4B	8f#L	4b	We-
.	.	.	8eJ	.	.
4F#	.	8cnL	8eL	4a	-ge,
.	.	8BJ	8d#J	.	.
8EL	.	4B	4e	8gL	Lauf
8GJ	.	.	.	8f#J	.
8F#L	.	4B	4e	4g	und
8EJ	.	.	.	.	.
=8	=8	=8	=8	=8	=8
2.B;	.	2.B;	2.d#;	2.f#;	Bahn,
4G#	.	4B	4e	4dd	der
=9	=9	=9	=9	=9	=9
8AL	.	4.A	4e	8cc#L	wird
8BJ	.	.	.	8ddJ	.
4c#	.	.	4e	4ee	auch
.	.	8G#	.	.	.
8F#L	.	8AL	(8f#	4dd	We-
8G#J	.	8BJ	4e)	.	.
4A	.	4c#	.	4cc#	-ge
.	.	.	8g#	.	.
=10	=10	=10	=10	=10	=10
(4D	.	8dL	(4f#	2b	fin-
.	.	8BJ	.	.	.
4E)	.	4G#	4e)	.	.
4AA;	.	4A;	4e;	4cc#;	-den,
8DL	.	4A	4d	4f#	die
8C#J	.	.	.	.	.
=11	=11	=11	=11	=11	=11
8BBL	.	4B	4d	4g	dein
8C#J	.	.	.	.	.
[4D	Fuss	4A	4d	4f#	Fuss
8DL]	.	4A	4e	4e	ge-
8C#	.	.	.	.	.
8BB	.	4c#	4e	4a	-hen
8C#J	.	.	.	.	.
=12	=12	=12	=12	=12	=12
8DL	ge-	8c#L	4e	2.f#;	kann.
8C#J	.	8A#	.	.	.
4BB	-hen	8B	4d	.	.
.	.	8G#J	.	.	.
4F#;	kann.	4A#;	4c#;	.	.
==|!	==|!	==|!	==|!	==|!	==|!
*-	*-	*-	*-	*-	*-
!!!RWG: Key is interpreted using the Humdrum key tool.
!!!END: 1994/05/09
!!!EMD: Converted from MuseData to Humdrum Dec 19, 2000, by Andreas Kornstaedt using muse2kern.
!!!EED: Craig Stuart Sapp
!!!EEV: 2024/03/31
!!!ONB: Some non-unicode characters
!!!filter-keyboard: satb2gs
